icons/pipe-filled.svg

<svg width="24" height="24" viewBox="0 0 24 24" fill="none" xmlns="http://www.w3.org/2000/svg">
<path fill-rule="evenodd" clip-rule="evenodd" d="M14 6V8H15C16.1046 8 17 8.89543 17 10V16C17 17.1046 16.1046 18 15 18H9C7.89543 18 7 17.1046 7 16V10C7 8.89543 7.89543 8 9 8H10V6H14ZM3 9C3.55228 9 4 9.44772 4 10V11H6V15H4V16C4 16.5523 3.55228 17 3 17C2.44772 17 2 16.5523 2 16V10C2 9.44772 2.44772 9 3 9ZM21 9C21.5523 9 22 9.44772 22 10V16C22 16.5523 21.5523 17 21 17C20.4477 17 20 16.5523 20 16V15H18V11H20V10C20 9.44772 20.4477 9 21 9ZM15 4C15.5523 4 16 4.44772 16 5C16 5.55228 15.5523 6 15 6H9C8.44772 6 8 5.55228 8 5C8 4.44772 8.44772 4 9 4H15Z" fill="#3A3A47"/>
</svg>

<svg xmlns="http://www.w3.org/2000/svg" width="24" height="24" viewBox="0 0 24 24">
    <path fill="#3A3A47" fill-rule="evenodd" d="M14 6v2h1a2 2 0 0 1 2 2v6a2 2 0 0 1-2 2H9a2 2 0 0 1-2-2v-6a2 2 0 0 1 2-2h1V6h4zM3 9a1 1 0 0 1 1 1v1h2v4H4v1a1 1 0 0 1-2 0v-6a1 1 0 0 1 1-1zm18 0a1 1 0 0 1 1 1v6a1 1 0 0 1-2 0v-1h-2v-4h2v-1a1 1 0 0 1 1-1zm-6-5a1 1 0 0 1 0 2H9a1 1 0 1 1 0-2h6z"/>
</svg>
